X: 16938
T: Hawk Polka, The
R: barndance
M: 4/4
K: Dmajor
F/G/|A (3A/B/A/ FA|dA f/e/d/c/|B (3B/c/B/ GB|e/f/g/f/ e/d/c/B/|
A (3A/B/A/ FA|dA f/e/d/c|B (3B/c/B/ gc|ed d:|
|:g|f/g/a/b/ a/f/g/b/|aA df|e/f/g gc|d/e/f fA|
f/g/a/b/ a/f/g/b/|ac df|e/f/g gc|ed d:|
|:A|A/a/f/d/ A/F/D/F/|A/a/f/d/ A2|A/G/E EG|B/A/F FG|
A/a/f/d/ A/F/D/F/|A/a/f/d/ A2|B/c/d c/d/e/f/|ed d:|
FG|A2 (3ABA F2A2|d2A2 fedc|B2 (3BcB G2B2|efgf edcB|
A2 (3ABA F2A2|d2A2 fedc|B2 (3BcB g2c2|e2d2 d2:|
|:g2|fgab afgb|a2A2 d2f2|efg2 g2c2|def2 f2A2|
fgab afgb|a2c2 d2f2|efg2 g2c2|e2d2 d2:|
|:A2|Aafd AFDF|Aafd A4|AGE2 E2G2|BAF2 F2G2|
Aafd AFDF|Aafd A4|Bcd2 cdef|e2d2 d2:|
F>G|A2 (3ABA F2A2|d2A2 f>ed>c|B2 (3BcB G2B2|e>fg>f e>dc>B|
A2 (3ABA F2A2|d2A2 f>ed>c|B2 (3BcB g2c2|e2d2 d2:|
|:g2|f>ga>b a>fg>b|a2A2 d2f2|e>fg2 g2c2|d>ef2 f2A2|
f>ga>b a>fg>b|a2c2 d2f2|e>fg2 g2c2|e2d2 d2:|
|:A2|A>af>d A>FD>F|A>af>d A4|A>GE2 E2G2|B>AF2 F2G2|
A>af>d A>FD>F|A>af>d A4|B>cd2 c>de>f|e2d2 d2:|

